X: 1
T: the Oyster Girl
B: Pinewoods Scottish Music Collection [Alternates] (1986)
R: jig
Z: 2006 John Chambers <jc:trillian.mit.edu>
S: printed MS of unknown origin
M: 6/8
L: 1/8
K: G
B/c/ \
| "G"d>ed B2G | "D7"A2F D>EF | "G"G>FG "Em"BGB | "Am"d2c "D7"A>Bc \
| "G"d>ed Bdg | "Am"f2e c2e | "G"d2B "D7"c>BA | "G"G3 G2 :|
|: A \
| "G"B>cd Bcd | "C"e2c "Am"e2c | "D7"A>Bc ABc | "G"d2B d2B \
| "G"d>ed Bdg | "Am"f2e c2e | "G"d2B "D7"c>BA | "G"G3 G2 :|
